!!!COM: Schubert, Franz Peter
!!!CDT: 1797-1828
!!!OTL: Wanderers Nachtlied
!!!OPS: Opus 96
!!!ONM: No. 3
!!!SCT: DV 768
!!!YOR: Franz Schubert: Selected songs
!!!PPE: Max Friedlaender
!!!PSR: C.F. Peters 
!!!PSP: Frankfurt, London, New York
!!!PSD: n.d.
!!!PPG: p.66
!!!ODT: 1823///
!!!ONB: Leading and trailing bars of rest have been deleted.
**kern
*M4/4
*MM[Langsam]
*B-:
*k[b-e-]
=1
8.b-
16b-
8b-
8b-
4cc
8b-
8a
=2
4.b-
8b-
4.ee-
8dd
=3
(8.dd
16cc)
4b-
8.cc
16cc
4cc
=4
4.dd-
(16cc
16b-)
4f
8r
8f
=5
4.cc
(16b-
16a)
(8.cc
16b-)
4f
=6
(16dd
16cc)
4cc
(16b-
16a)
(8.cc
16b-)
8f
8r
=7
8.b-
16a
4g
8.cc
16b-
4a
=8
(8.dd
16ee-)
4ff;
4dd
8cc
8f
=9
4b-
4r
8.b-
16a
4g
=10
8.cc
16b-
4a
(8.dd
16ee-)
4ff;
=11
4dd
8cc
8f
2b-
==
*-
!!!ENC: David Huron
!!!EMD: Paul von Hippel updated this file in the following ways (1998/9/2,21-22/):
!!!EMD:  (1) changed the representation of slurs from curly braces to parentheses 
!!!EMD:  (2) changed freeform comments into reference records and tandem interpretations
!!!EMD:  (3) changed final barline from quadruple (====) to double (==)
!!!EMD:  (4) added key signatures, key designations, and tempi
!!!EEV: Version 2.0
